svg/fluentui-system-icons/ic_fluent_tablet_speaker_20_regular.svg

<svg width="20" height="20" viewBox="0 0 20 20" fill="none" xmlns="http://www.w3.org/2000/svg">
<path d="M18.0932 3.07447C17.9351 2.65306 17.7712 2.36167 17.65 2.20003C17.4843 1.97912 17.1709 1.93434 16.95 2.10003C16.7291 2.26571 16.6843 2.57912 16.85 2.80003L16.9182 2.90521C16.9838 3.01739 17.0688 3.19089 17.1568 3.42559C17.3705 3.99537 17.5 4.68603 17.5 5.50003C17.5 6.31403 17.3705 7.00469 17.1568 7.57447C17.0688 7.80917 16.9838 7.98267 16.9182 8.09485L16.8025 8.27676C16.6964 8.48876 16.7536 8.75275 16.95 8.90003C17.1709 9.06571 17.4843 9.02094 17.65 8.80003C17.7712 8.63839 17.9351 8.347 18.0932 7.92559C18.3482 7.24537 18.5 6.43603 18.5 5.50003C18.5 4.56403 18.3482 3.75469 18.0932 3.07447ZM14 2.50001C14 2.29778 13.8782 2.11547 13.6913 2.03807C13.5045 1.96068 13.2894 2.00346 13.1464 2.14646L11.2929 4.00001H10.5C10.2239 4.00001 10 4.22387 10 4.50001V6.50001C10 6.77616 10.2239 7.00001 10.5 7.00001H11.2929L13.1464 8.85357C13.2894 8.99657 13.5045 9.03935 13.6913 8.96195C13.8782 8.88456 14 8.70225 14 8.50001V2.50001ZM15.9472 3.27642C16.0196 3.42114 16.1224 3.661 16.2243 3.96692C16.3962 4.4825 16.5 5.00149 16.5 5.50003C16.5 5.99857 16.3962 6.51756 16.2243 7.03314C16.1224 7.33905 16.0196 7.57892 15.9472 7.72364C15.8237 7.97063 15.5234 8.07074 15.2764 7.94724C15.0294 7.82375 14.9293 7.52341 15.0528 7.27642L15.1293 7.10789C15.1733 7.0036 15.2243 6.87087 15.2756 6.71692C15.4163 6.295 15.5 5.87649 15.5 5.50003C15.5 5.12357 15.4163 4.70506 15.2756 4.28314C15.1901 4.02655 15.1054 3.82892 15.0528 3.72364C14.9293 3.47665 15.0294 3.17631 15.2764 3.05282C15.5234 2.92932 15.8237 3.02943 15.9472 3.27642ZM17 9.97943V14C17 14.5523 16.5523 15 16 15H4C3.44772 15 3 14.5523 3 14V6C3 5.44772 3.44772 5 4 5H9V4.50007C9 4.32473 9.03009 4.15641 9.08538 4H4C2.89543 4 2 4.89543 2 6V14C2 15.1046 2.89543 16 4 16H16C17.1046 16 18 15.1046 18 14V9.79956C17.6975 9.97398 17.3425 10.037 17 9.97943ZM8.5 13C8.22386 13 8 13.2239 8 13.5C8 13.7761 8.22386 14 8.5 14H11.5C11.7761 14 12 13.7761 12 13.5C12 13.2239 11.7761 13 11.5 13H8.5Z" fill="#212121"/>
</svg>

<svg xmlns="http://www.w3.org/2000/svg" width="20" height="20"><path d="M18.093 3.074c-.158-.42-.322-.712-.443-.874a.5.5 0 0 0-.8.6l.068.105c.066.112.15.286.239.52.213.57.343 1.261.343 2.075 0 .814-.13 1.505-.343 2.074a3.475 3.475 0 0 1-.239.52l-.116.183a.5.5 0 0 0 .848.523c.121-.162.285-.453.443-.874.255-.68.407-1.49.407-2.426 0-.936-.152-1.745-.407-2.426ZM14 2.5a.5.5 0 0 0-.854-.354L11.293 4H10.5a.5.5 0 0 0-.5.5v2a.5.5 0 0 0 .5.5h.793l1.853 1.854A.5.5 0 0 0 14 8.5v-6Zm1.947.776c.073.145.175.385.277.69.172.516.276 1.035.276 1.534 0 .499-.104 1.018-.276 1.533a5.51 5.51 0 0 1-.277.69.5.5 0 1 1-.894-.447l.076-.168a5.71 5.71 0 0 0 .147-.391c.14-.422.224-.84.224-1.217 0-.376-.084-.795-.224-1.217a4.59 4.59 0 0 0-.223-.56.5.5 0 1 1 .894-.447ZM17 9.98V14a1 1 0 0 1-1 1H4a1 1 0 0 1-1-1V6a1 1 0 0 1 1-1h5v-.5c0-.175.03-.344.085-.5H4a2 2 0 0 0-2 2v8a2 2 0 0 0 2 2h12a2 2 0 0 0 2-2V9.8a1.506 1.506 0 0 1-1 .18ZM8.5 13a.5.5 0 0 0 0 1h3a.5.5 0 0 0 0-1h-3Z"/></svg>
